X: 36945
T: Shove The Pig's Foot A Little Closer To The Fire
R: reel
M: 4/4
K: Gmajor
|:B2-|BcBA GDEF|GAGE D3 E|DE G2 B2 A/B/c|B2 A2- A2 B2-|
BcBA G2 D/E/F|GA G/F/E D2 DE|DE G2 B3 G|A2 G2- G2:|
B2-|:BddB d3 g|ed B2 d2 GA|Bd- d2 g3 d|e2 d2- d2 F/G/A|
Bd- dB d2 dg|edBc d2 g2|B3 c BA G/A/B|1 A2 G2- G2 GA:|2 A2 G2- G2||

